src/lib/packages/icons/src/assets/filled/layout-web-4.svg

<svg width="24" height="24" viewBox="0 0 24 24" fill="none" xmlns="http://www.w3.org/2000/svg">
<path d="M6 4H7.94995C8.11595 4 8.25 4.13405 8.25 4.30005V19.7C8.25 19.866 8.11595 20 7.94995 20H6C4 20 3 19 3 17V7C3 5 4 4 6 4ZM18 4H10.05C9.88405 4 9.75 4.13405 9.75 4.30005V11.25H20.7C20.866 11.25 21 11.116 21 10.95V7C21 5 20 4 18 4ZM9.75 19.7C9.75 19.866 9.88405 20 10.05 20H18C20 20 21 19 21 17V13.05C21 12.884 20.866 12.75 20.7 12.75H9.75V19.7Z" fill="currentColor"/>
</svg>

<svg xmlns="http://www.w3.org/2000/svg" width="24" height="24" fill="none"><path fill="currentColor" d="M6 4h1.95a.3.3 0 0 1 .3.3v15.4a.3.3 0 0 1-.3.3H6c-2 0-3-1-3-3V7c0-2 1-3 3-3Zm12 0h-7.95a.3.3 0 0 0-.3.3v6.95H20.7a.3.3 0 0 0 .3-.3V7c0-2-1-3-3-3ZM9.75 19.7a.3.3 0 0 0 .3.3H18c2 0 3-1 3-3v-3.95a.3.3 0 0 0-.3-.3H9.75v6.95Z"/></svg>
